image/icon/NordicDwelling.svg

<?xml version="1.0" encoding="UTF-8" standalone="no"?>
<!-- Created with Inkscape (http://www.inkscape.org/) -->

<svg
   xmlns:dc="http://purl.org/dc/elements/1.1/"
   xmlns:cc="http://creativecommons.org/ns#"
   xmlns:rdf="http://www.w3.org/1999/02/22-rdf-syntax-ns#"
   xmlns:svg="http://www.w3.org/2000/svg"
   xmlns="http://www.w3.org/2000/svg"
   version="1.1"
   width="42"
   height="32.799999"
   viewBox="0 0 42 32.799999"
   id="svg3052"
   style="overflow:visible">
  <metadata
     id="metadata3070">
    <rdf:RDF>
      <cc:Work
         rdf:about="">
        <dc:format>image/svg+xml</dc:format>
        <dc:type
           rdf:resource="http://purl.org/dc/dcmitype/StillImage" />
        <dc:title></dc:title>
      </cc:Work>
    </rdf:RDF>
  </metadata>
  <defs
     id="defs3054" />
  <g
     transform="translate(21,16.4)"
     id="g3058">
    <g
       id="g3060">
      <g
         id="g3062">
        <path
           d="m -1.15,-16.4 2.25,0 c 4.766667,0 8.983334,2.166667 12.65,6.5 3.666666,4.3333334 6.016666,9.91666689 7.05,16.75 L 21,8.05 8.85,15 9.75,11 C 10.616667,7.2666664 10.533334,3.833333 9.5,0.7 L 5.05,1.75 6.7,14.1 0.6,16.15 0.5,16.15 -0.1,16.4 -6.75,14.1 -5.1,1.75 -9.55,0.7 C -10.583334,3.8333337 -10.666667,7.2666674 -9.8,11 l 0.9,4 -12.1,-6.95 0.15,-1.2 c 1.033334,-6.83333359 3.383335,-12.416667 7.05,-16.75 3.666667,-4.333334 7.883334,-6.5 12.65,-6.5 z m 9.9,11.9 c -1.766667,1.1666667 -3.7000003,1.8666668 -5.8,2.1 l -0.2,-6.55 c 2.166667,0.5 4.166667,1.983334 6,4.45 z m -7.65,-10.05 -2.25,0 c -4.3333336,0 -8.183334,2.066666 -11.55,6.2 -3.3,4.0666667 -5.416667,9.2333337 -6.35,15.5 l 7.5,4.3 c -1.133333,-4.966667 -0.8,-9.3166673 1,-13.05 2.333333,1 4.833333,1.6 7.5,1.8 l -1.7,12.7 4.65,1.6 0.15,0 L 4.7,12.9 3,0.2 C 5.666667,-1.4901161e-8 8.166667,-0.6 10.5,-1.6 c 1.766666,3.8333336 2.099999,8.183334 1,13.05 L 19,7.15 C 18.066668,0.8833337 15.950001,-4.2833333 12.65,-8.35 9.283333,-12.483334 5.433333,-14.55 1.1,-14.55 z M -8.8,-4.5 c 1.8333333,-2.4666667 3.8333333,-3.95 6,-4.45 L -3,-2.4 c -2.1000004,-0.2333334 -4.033334,-0.9333335 -5.8,-2.1 z"
           id="path3064"
           style="fill:#000000;stroke-linecap:round;stroke-linejoin:round" />
        <path
           d="m 2.95,-2.4 c 2.1,-0.2333334 4.0333336,-0.9333335 5.8,-2.1 -1.8333335,-2.4666667 -3.8333335,-3.95 -6,-4.45 l 0.2,6.55 z m -4.1,-12.15 2.25,0 c 4.3333334,0 8.183333,2.066666 11.55,6.2 3.300001,4.0666667 5.416668,9.2333337 6.35,15.5 l -7.5,4.3 C 12.599999,6.583333 12.266666,2.2333326 10.5,-1.6 8.166666,-0.6 5.666666,0 3,0.2 l 1.7,12.7 -4.65,1.6 -0.15,0 -4.65,-1.6 1.7,-12.7 C -5.7166667,-1.4901161e-8 -8.216667,-0.6 -10.55,-1.6 c -1.8,3.7333332 -2.133333,8.0833336 -1,13.05 l -7.5,-4.3 c 0.933333,-6.2666663 3.05,-11.4333333 6.35,-15.5 3.366667,-4.133334 7.2166674,-6.2 11.55,-6.2 z m -1.65,5.6 c -2.166667,0.5 -4.166667,1.983334 -6,4.45 1.7666667,1.1666667 3.7,1.8666668 5.8,2.1 l 0.2,-6.55 z"
           id="path3066"
           style="fill:#ffffff;stroke-linecap:round;stroke-linejoin:round" />
      </g>
    </g>
  </g>
</svg>

<!--version="1.0" encoding="UTF-8" standalone="no"--><!-- Created with Inkscape (http://www.inkscape.org/) --><svg xmlns="http://www.w3.org/2000/svg" version="1.1" width="42" height="32.8" viewBox="0 0 42 32.8" id="svg3052" style="overflow-x: visible; overflow-y: visible;"><g transform="translate(21,16.4)" id="g3058"><g id="g3060"><g id="g3062"><path d="M-1.15-16.4H1.1c4.767 0 8.983 2.167 12.65 6.5C17.417-5.567 19.767.017 20.8 6.85l.2 1.2L8.85 15l.9-4c.867-3.733.783-7.167-.25-10.3L5.05 1.75 6.7 14.1.6 16.15H.5l-.6.25-6.65-2.3L-5.1 1.75-9.55.7c-1.033 3.133-1.117 6.567-.25 10.3l.9 4L-21 8.05l.15-1.2C-19.817.017-17.467-5.567-13.8-9.9c3.667-4.333 7.883-6.5 12.65-6.5zm9.9 11.9a12.984 12.984 0 01-5.8 2.1l-.2-6.55c2.167.5 4.167 1.983 6 4.45zM1.1-14.55h-2.25c-4.333 0-8.183 2.067-11.55 6.2-3.3 4.067-5.417 9.233-6.35 15.5l7.5 4.3c-1.133-4.967-.8-9.317 1-13.05 2.333 1 4.833 1.6 7.5 1.8l-1.7 12.7 4.65 1.6h.15l4.65-1.6L3 .2c2.667-.2 5.167-.8 7.5-1.8 1.767 3.833 2.1 8.183 1 13.05l7.5-4.3c-.933-6.267-3.05-11.433-6.35-15.5-3.367-4.133-7.217-6.2-11.55-6.2zM-8.8-4.5c1.833-2.467 3.833-3.95 6-4.45L-3-2.4a12.984 12.984 0 01-5.8-2.1z" id="path3064" style="fill: rgb(0, 0, 0); stroke-linecap: round; stroke-linejoin: round;"/><path d="M2.95-2.4c2.1-.233 4.033-.933 5.8-2.1-1.833-2.467-3.833-3.95-6-4.45l.2 6.55zm-4.1-12.15H1.1c4.333 0 8.183 2.067 11.55 6.2C15.95-4.283 18.067.883 19 7.15l-7.5 4.3c1.1-4.867.767-9.217-1-13.05C8.167-.6 5.667 0 3 .2l1.7 12.7-4.65 1.6H-.1l-4.65-1.6L-3.05.2c-2.667-.2-5.167-.8-7.5-1.8-1.8 3.733-2.133 8.083-1 13.05l-7.5-4.3C-18.117.883-16-4.283-12.7-8.35c3.367-4.133 7.217-6.2 11.55-6.2zm-1.65 5.6c-2.167.5-4.167 1.983-6 4.45A12.984 12.984 0 00-3-2.4l.2-6.55z" id="path3066" style="fill: rgb(255, 255, 255); stroke-linecap: round; stroke-linejoin: round;"/></g></g></g></svg>
